;FLAVOR:Marlin
;TIME:7610
;Filament used: 15.6842m
;Layer height: 0.32
;MINX:52.9
;MINY:64.158
;MINZ:0.32
;MAXX:182.1
;MAXY:161.358
;MAXZ:21.12
;TARGET_MACHINE.NAME:Creality Ender-3
;Generated with Cura_SteamEngine 5.10.2
M140 S80
M105
M190 S80
M104 S240
M105
M109 S240
; Ender 3 Custom Start G-code
G92 E0 ; Reset Extruder
G28 ; Home all axes
G1 Z2.0 F3000 ; Move Z Axis up little to prevent scratching of Heat Bed
G1 X0.1 Y20 Z0.3 F5000.0 ; Move to start position
G1 X0.1 Y200.0 Z0.3 F1500.0 E15 ; Draw the first line
G1 X0.4 Y200.0 Z0.3 F5000.0 ; Move to side a little
G1 X0.4 Y20 Z0.3 F1500.0 E30 ; Draw the second line
G92 E0 ; Reset Extruder
G1 Z2.0 F3000 ; Move Z Axis up little to prevent scratching of Heat Bed
G1 X5 Y20 Z0.3 F5000.0 ; Move over to prevent blob squish
M82 ;absolute extrusion mode
G92 E0
G92 E0
G1 F2700 E-5
;LAYER_COUNT:66
;LAYER:0
M107
G0 F6000 X60.416 Y68.854 Z0.32
;TYPE:SKIRT
G1 F2700 E0
G1 F1200 X60.926 Y68.464 E0.06833
G1 X61.868 Y67.789 E0.19167
G1 X62.477 Y67.374 E0.27011
G1 X63.252 Y66.895 E0.36708
G1 X63.93 Y66.539 E0.44858
G1 X65.071 Y65.991 E0.5833
G1 X65.683 Y65.718 E0.65463
G1 X66.616 Y65.351 E0.76133
G1 X67.241 Y65.153 E0.83111
G1 X68.407 Y64.826 E0.96
G1 X69.13 Y64.645 E1.03933
G1 X70.076 Y64.452 E1.14208
G1 X70.733 Y64.363 E1.21265
G1 X71.522 Y64.28 E1.29709
G1 X72.484 Y64.204 E1.39979
G1 X73.169 Y64.173 E1.47278
G1 X74.074 Y64.159 E1.56911
G1 X160.89 Y64.158 E10.80915
G1 X161.745 Y64.17 E10.90016
G1 X162.414 Y64.199 E10.97143
G1 X163.548 Y64.287 E11.09248
G1 X164.206 Y64.355 E11.16289
G1 X165.29 Y64.519 E11.27957
G1 X165.89 Y64.652 E11.34498
G1 X166.731 Y64.863 E11.43727
G1 X167.76 Y65.151 E11.55099
G1 X168.626 Y65.437 E11.64806
G1 X169.313 Y65.717 E11.72702
G1 X170.05 Y66.046 E11.81292
G1 X170.991 Y66.495 E11.92389
G1 X171.929 Y67.002 E12.03738
G1 X172.479 Y67.352 E12.10676
G1 X173.523 Y68.063 E12.2412
G1 X174.096 Y68.479 E12.31656
G1 X174.899 Y69.119 E12.42585
G1 X175.352 Y69.537 E12.49145
G1 X176.114 Y70.276 E12.60443
G1 X176.722 Y70.901 E12.69723
G1 X177.328 Y71.582 E12.79426
G1 X177.785 Y72.171 E12.8736
G1 X178.489 Y73.153 E13.0022
G1 X178.87 Y73.715 E13.07447
G1 X179.426 Y74.62 E13.18751
G1 X179.702 Y75.15 E13.25111
G1 X180.259 Y76.313 E13.38836
G1 X180.55 Y76.964 E13.46425
G1 X180.886 Y77.811 E13.56124
G1 X181.114 Y78.529 E13.64142
G1 X181.428 Y79.646 E13.76491
G1 X181.6 Y80.329 E13.83987
G1 X181.802 Y81.313 E13.94678
G1 X181.892 Y81.984 E14.01884
G1 X182.01 Y83.155 E14.1441
G1 X182.056 Y83.798 E14.21271
G1 X182.085 Y84.435 E14.28058
G1 X182.099 Y85.305 E14.37319
G1 X182.1 Y140.145 E20.20995
G1 X182.088 Y141.005 E20.30149
G1 X182.059 Y141.677 E20.37308
G1 X182.001 Y142.465 E20.45717
G1 X181.986 Y142.562 E20.46762
G1 X181.971 Y142.817 E20.4948
G1 X181.906 Y143.451 E20.56264
G1 X181.743 Y144.536 E20.67941
G1 X181.605 Y145.154 E20.74681
G1 X181.308 Y146.317 E20.87456
G1 X181.133 Y146.936 E20.94302
G1 X180.786 Y147.976 E21.05971
G1 X180.546 Y148.557 E21.12662
G1 X180.189 Y149.356 E21.21976
G1 X179.764 Y150.249 E21.32502
G1 X179.287 Y151.137 E21.4323
G1 X178.906 Y151.739 E21.50813
G1 X178.218 Y152.75 E21.63829
G1 X177.795 Y153.335 E21.71512
G1 X177.23 Y154.051 E21.81219
G1 X176.723 Y154.611 E21.89259
G1 X175.917 Y155.436 E22.01535
G1 X175.368 Y155.968 E22.09672
G1 X174.599 Y156.649 E22.20604
G1 X174.079 Y157.047 E22.27574
G1 X173.082 Y157.762 E22.40632
G1 X172.481 Y158.168 E22.48351
G1 X171.656 Y158.672 E22.58641
G1 X171.04 Y158.993 E22.66034
G1 X169.978 Y159.502 E22.78568
G1 X169.302 Y159.804 E22.86448
G1 X168.272 Y160.203 E22.98204
G1 X167.767 Y160.361 E23.03836
G1 X166.649 Y160.674 E23.16193
G1 X165.899 Y160.864 E23.24428
G1 X164.948 Y161.06 E23.34762
G1 X164.254 Y161.153 E23.42214
G1 X163.12 Y161.266 E23.54344
G1 X162.447 Y161.314 E23.61525
G1 X161.812 Y161.343 E23.6829
G1 X160.924 Y161.357 E23.77743
G1 X74.113 Y161.358 E33.01693
G1 X73.253 Y161.346 E33.10847
G1 X72.585 Y161.317 E33.17964
G1 X71.754 Y161.255 E33.26833
G1 X70.745 Y161.156 E33.37623
G1 X69.842 Y161.024 E33.47336
G1 X69.109 Y160.863 E33.55324
G1 X67.956 Y160.57 E33.67986
G1 X67.272 Y160.375 E33.75556
G1 X66.319 Y160.057 E33.86248
G1 X65.692 Y159.799 E33.93465
G1 X64.743 Y159.374 E34.04532
G1 X63.941 Y158.986 E34.14014
G1 X63.138 Y158.554 E34.23719
G1 X62.524 Y158.168 E34.31438
G1 X61.788 Y157.672 E34.40884
G1 X60.947 Y157.071 E34.51886
G1 X60.141 Y156.432 E34.62833
G1 X59.681 Y156.011 E34.6947
G1 X58.767 Y155.118 E34.8307
G1 X58.266 Y154.599 E34.90748
G1 X57.587 Y153.83 E35.01666
G1 X57.21 Y153.338 E35.08263
G1 X56.521 Y152.379 E35.20831
G1 X56.148 Y151.83 E35.27895
G1 X55.573 Y150.891 E35.39614
G1 X55.273 Y150.313 E35.46545
G1 X54.735 Y149.189 E35.59808
G1 X54.444 Y148.535 E35.67427
G1 X54.09 Y147.634 E35.7773
G1 X53.892 Y147.007 E35.84728
G1 X53.615 Y146.032 E35.95516
G1 X53.387 Y145.133 E36.05387
G1 X53.204 Y144.24 E36.15089
G1 X53.105 Y143.511 E36.22919
G1 X52.992 Y142.381 E36.35006
G1 X52.943 Y141.699 E36.42284
G1 X52.914 Y141.044 E36.49262
G1 X52.901 Y140.172 E36.58544
G1 X52.9 Y85.37 E42.41815
G1 X52.912 Y84.516 E42.50905
G1 X52.94 Y83.847 E42.58031
G1 X53.031 Y82.683 E42.70458
G1 X53.098 Y82.04 E42.77339
G1 X53.262 Y80.955 E42.89018
G1 X53.396 Y80.36 E42.95509
G1 X53.688 Y79.213 E43.08106
G1 X53.886 Y78.52 E43.15777
G1 X54.204 Y77.569 E43.2645
G1 X54.458 Y76.953 E43.33542
G1 X54.933 Y75.898 E43.45856
G1 X55.257 Y75.229 E43.53767
G1 X55.746 Y74.325 E43.64706
G1 X56.088 Y73.787 E43.71491
G1 X56.596 Y73.033 E43.81168
G1 X57.218 Y72.165 E43.92533
G1 X57.858 Y71.361 E44.0347
G1 X58.286 Y70.896 E44.10197
G1 X59.018 Y70.144 E44.21366
G1 X59.619 Y69.56 E44.30285
G1 X60.416 Y68.854 E44.41617
G0 F6000 X60.903 Y69.489
G1 F1200 X61.392 Y69.114 E44.48176
G1 X62.318 Y68.45 E44.60304
G1 X62.898 Y68.055 E44.67772
G1 X63.673 Y67.576 E44.77469
G1 X64.276 Y67.26 E44.84715
G1 X65.397 Y66.722 E44.97949
G1 X66.009 Y66.449 E45.05081
G1 X66.858 Y66.114 E45.14795
G1 X67.483 Y65.916 E45.21773
G1 X68.602 Y65.602 E45.34143
G1 X69.291 Y65.429 E45.41704
G1 X70.184 Y65.245 E45.51408
G1 X70.817 Y65.159 E45.58207
G1 X71.585 Y65.078 E45.66426
G1 X72.547 Y65.002 E45.76697
G1 X73.182 Y64.973 E45.83463
G1 X74.074 Y64.959 E45.92958
G1 X160.879 Y64.958 E55.16844
G1 X161.71 Y64.969 E55.2569
G1 X162.352 Y64.997 E55.32529
G1 X163.466 Y65.083 E55.44421
G1 X164.124 Y65.151 E55.51462
G1 X165.117 Y65.3 E55.62149
G1 X165.695 Y65.428 E55.68449
G1 X166.516 Y65.634 E55.77458
G1 X167.509 Y65.911 E55.88431
G1 X168.375 Y66.197 E55.98137
G1 X168.987 Y66.448 E56.05178
G1 X169.705 Y66.768 E56.13544
G1 X170.646 Y67.217 E56.24641
G1 X171.5 Y67.677 E56.34965
G1 X172.029 Y68.013 E56.41635
G1 X173.054 Y68.711 E56.54834
G1 X173.598 Y69.105 E56.61983
G1 X174.357 Y69.708 E56.723
G1 X174.795 Y70.111 E56.78635
G1 X175.541 Y70.834 E56.89692
G1 X176.124 Y71.433 E56.98588
G1 X176.73 Y72.114 E57.0829
G1 X177.135 Y72.638 E57.15339
G1 X177.827 Y73.602 E57.27969
G1 X178.208 Y74.164 E57.35195
G1 X178.716 Y74.99 E57.45516
G1 X178.992 Y75.52 E57.51876
G1 X179.529 Y76.64 E57.65096
G1 X179.806 Y77.259 E57.72314
G1 X180.142 Y78.106 E57.82012
G1 X180.344 Y78.745 E57.89145
G1 X180.652 Y79.842 E58.01272
G1 X180.816 Y80.49 E58.08386
G1 X181.018 Y81.474 E58.19077
G1 X181.096 Y82.064 E58.25412
G1 X181.212 Y83.213 E58.37703
G1 X181.257 Y83.835 E58.4434
G1 X181.285 Y84.448 E58.50871
G1 X181.299 Y85.305 E58.59994
G1 X181.3 Y140.134 E64.43552
G1 X181.289 Y140.97 E64.52451
G1 X181.261 Y141.618 E64.59354
G1 X181.203 Y142.406 E64.67764
G1 X181.19 Y142.46 E64.68355
G1 X181.175 Y142.735 E64.71286
G1 X181.11 Y143.369 E64.78069
G1 X180.962 Y144.362 E64.88755
G1 X180.83 Y144.956 E64.95231
G1 X180.538 Y146.099 E65.07787
G1 X180.363 Y146.718 E65.14633
G1 X180.046 Y147.671 E65.25323
G1 X179.815 Y148.231 E65.3177
G1 X179.466 Y149.013 E65.40884
G1 X179.059 Y149.87 E65.50982
G1 X178.582 Y150.758 E65.6171
G1 X178.245 Y151.289 E65.68404
G1 X177.569 Y152.282 E65.81189
G1 X177.167 Y152.839 E65.885
G1 X176.602 Y153.555 E65.98208
G1 X176.15 Y154.052 E66.05358
G1 X175.36 Y154.862 E66.174
G1 X174.837 Y155.37 E66.2516
G1 X174.112 Y156.014 E66.35481
G1 X173.613 Y156.397 E66.42176
G1 X172.634 Y157.099 E66.54998
G1 X172.062 Y157.486 E66.62348
G1 X171.285 Y157.963 E66.72052
G1 X170.694 Y158.272 E66.7915
G1 X169.651 Y158.772 E66.91461
G1 X169.012 Y159.058 E66.98912
G1 X168.033 Y159.439 E67.10093
G1 X167.528 Y159.597 E67.15725
G1 X166.452 Y159.899 E67.27619
G1 X165.738 Y160.08 E67.35459
G1 X164.787 Y160.276 E67.45793
G1 X164.175 Y160.357 E67.52364
G1 X163.062 Y160.468 E67.64269
G1 X162.41 Y160.515 E67.71226
G1 X161.799 Y160.543 E67.77736
G1 X160.924 Y160.557 E67.8705
G1 X74.124 Y160.558 E77.10883
G1 X73.288 Y160.547 E77.19782
G1 X72.644 Y160.519 E77.26643
G1 X71.832 Y160.459 E77.35309
G1 X70.861 Y160.364 E77.45692
G1 X69.958 Y160.232 E77.55405
G1 X69.306 Y160.088 E77.62512
G1 X68.174 Y159.8 E77.74944
G1 X67.525 Y159.616 E77.82124
G1 X66.572 Y159.298 E77.92817
G1 X66.019 Y159.069 E77.99187
G1 X65.091 Y158.654 E78.10007
G1 X64.32 Y158.281 E78.19122
G1 X63.517 Y157.849 E78.28827
G1 X62.971 Y157.505 E78.35696
G1 X62.253 Y157.021 E78.44912
G1 X61.443 Y156.443 E78.55502
G1 X60.681 Y155.841 E78.65838
G1 X60.24 Y155.438 E78.72196
G1 X59.342 Y154.562 E78.85548
G1 X58.865 Y154.069 E78.9285
G1 X58.222 Y153.343 E79.03171
G1 X57.86 Y152.871 E79.09502
G1 X57.183 Y151.929 E79.21849
G1 X56.81 Y151.38 E79.28913
G1 X56.283 Y150.523 E79.39621
G1 X55.995 Y149.968 E79.46276
G1 X55.466 Y148.863 E79.59315
G1 X55.189 Y148.242 E79.66552
G1 X54.835 Y147.341 E79.76855
G1 X54.661 Y146.788 E79.83026
G1 X54.39 Y145.835 E79.93571
G1 X54.171 Y144.972 E80.03047
G1 X53.988 Y144.079 E80.12749
G1 X53.901 Y143.431 E80.19708
G1 X53.79 Y142.323 E80.31559
G1 X53.742 Y141.664 E80.38592
G1 X53.714 Y141.032 E80.45325
G1 X53.701 Y140.172 E80.54479
G1 X53.7 Y85.381 E86.37633
G1 X53.711 Y84.55 E86.46478
G1 X53.738 Y83.909 E86.53307
G1 X53.827 Y82.766 E86.65509
G1 X53.894 Y82.123 E86.72389
G1 X54.043 Y81.13 E86.83077
G1 X54.171 Y80.558 E86.89315
G1 X54.458 Y79.432 E87.01682
G1 X54.645 Y78.774 E87.08963
G1 X54.963 Y77.823 E87.19636
G1 X55.187 Y77.281 E87.25878
G1 X55.653 Y76.246 E87.37958
G1 X55.961 Y75.608 E87.45499
G1 X56.421 Y74.754 E87.55823
G1 X56.751 Y74.234 E87.62378
G1 X57.247 Y73.498 E87.71824
G1 X57.845 Y72.662 E87.82764
G1 X58.448 Y71.902 E87.93089
G1 X58.859 Y71.454 E87.9956
G1 X59.576 Y70.718 E88.10496
G1 X60.177 Y70.134 E88.19415
G1 X60.903 Y69.489 E88.29751
G0 F6000 X61.39 Y70.124
G1 F1200 X61.859 Y69.764 E88.36044
G1 X62.768 Y69.111 E88.47956
G1 X63.319 Y68.736 E88.5505
G1 X64.094 Y68.257 E88.64747
G1 X64.623 Y67.981 E88.71097
G1 X65.723 Y67.452 E88.84088
G1 X66.303 Y67.193 E88.90849
G1 X67.152 Y66.858 E89.00563
G1 X67.699 Y66.686 E89.06666
G1 X68.797 Y66.378 E89.18803
G1 X69.452 Y66.213 E89.25992
G1 X70.345 Y66.029 E89.35696
G1 X70.901 Y65.955 E89.41666
G1 X71.669 Y65.874 E89.49886
G1 X72.584 Y65.801 E89.59655
G1 X73.195 Y65.773 E89.66165
G1 X74.074 Y65.759 E89.75522
G1 X160.869 Y65.758 E98.99302
G1 X161.675 Y65.768 E99.07881
G1 X162.291 Y65.795 E99.14444
G1 X163.384 Y65.879 E99.26111
G1 X164.042 Y65.947 E99.33151
G1 X164.944 Y66.081 E99.42857
G1 X165.501 Y66.204 E99.48928
G1 X166.291 Y66.402 E99.57596
G1 X167.258 Y66.671 E99.68279
G1 X168.124 Y66.957 E99.77986
G1 X168.661 Y67.179 E99.8417
G1 X169.379 Y67.499 E99.92537
G1 X170.268 Y67.922 E100.03015
G1 X171.072 Y68.353 E100.12724
G1 X171.579 Y68.674 E100.19111
G1 X172.585 Y69.359 E100.32065
G1 X173.101 Y69.732 E100.38841
G1 X173.816 Y70.298 E100.48547
G1 X174.238 Y70.685 E100.54641
G1 X174.968 Y71.393 E100.65465
G1 X175.526 Y71.965 E100.73969
G1 X176.132 Y72.646 E100.83672
G1 X176.485 Y73.105 E100.89835
G1 X177.165 Y74.051 E101.02234
G1 X177.527 Y74.584 E101.09092
G1 X178.006 Y75.36 E101.18798
G1 X178.282 Y75.89 E101.25158
G1 X178.799 Y76.967 E101.37873
G1 X179.062 Y77.554 E101.44719
G1 X179.398 Y78.401 E101.54417
G1 X179.574 Y78.961 E101.60665
G1 X179.876 Y80.038 E101.7257
G1 X180.04 Y80.686 E101.79684
G1 X180.225 Y81.579 E101.8939
G1 X180.3 Y82.145 E101.95467
G1 X180.414 Y83.272 E102.07523
G1 X180.458 Y83.872 E102.13926
G1 X180.485 Y84.461 E102.20202
G1 X180.499 Y85.305 E102.29186
G1 X180.5 Y140.124 E108.12638
G1 X180.49 Y140.935 E108.2127
G1 X180.463 Y141.559 E108.27918
G1 X180.405 Y142.347 E108.36327
G1 X180.395 Y142.346 E108.36434
G1 X180.379 Y142.653 E108.39706
G1 X180.314 Y143.287 E108.46489
G1 X180.181 Y144.189 E108.56193
G1 X180.055 Y144.758 E108.62396
G1 X179.768 Y145.881 E108.74732
G1 X179.593 Y146.5 E108.81579
G1 X179.306 Y147.366 E108.91289
G1 X179.084 Y147.905 E108.97493
G1 X178.743 Y148.67 E109.06408
G1 X178.336 Y149.527 E109.16505
G1 X177.906 Y150.33 E109.262
G1 X177.584 Y150.839 E109.3261
G1 X176.92 Y151.814 E109.45165
G1 X176.539 Y152.343 E109.52104
G1 X175.974 Y153.059 E109.61811
G1 X175.577 Y153.494 E109.68079
G1 X174.802 Y154.289 E109.79896
G1 X174.305 Y154.773 E109.8728
G1 X173.624 Y155.38 E109.96989
G1 X173.147 Y155.747 E110.03395
G1 X172.185 Y156.437 E110.15995
G1 X171.643 Y156.804 E110.22961
G1 X170.866 Y157.281 E110.32665
G1 X170.348 Y157.551 E110.38882
G1 X169.323 Y158.042 E110.50979
G1 X168.722 Y158.312 E110.57991
G1 X167.743 Y158.693 E110.69172
G1 X167.311 Y158.827 E110.73986
G1 X166.255 Y159.124 E110.85662
G1 X165.575 Y159.297 E110.9313
G1 X164.682 Y159.483 E111.02838
G1 X164.095 Y159.561 E111.0914
G1 X163.004 Y159.67 E111.2081
G1 X162.373 Y159.716 E111.27544
G1 X161.786 Y159.743 E111.33798
G1 X160.924 Y159.757 E111.42974
G1 X74.134 Y159.758 E120.66701
G1 X73.323 Y159.748 E120.75333
G1 X72.702 Y159.721 E120.81949
G1 X71.91 Y159.663 E120.90401
G1 X70.977 Y159.572 E121.00378
G1 X70.074 Y159.44 E121.10091
G1 X69.503 Y159.313 E121.16317
G1 X68.392 Y159.03 E121.28519
G1 X67.743 Y158.846 E121.35699
G1 X66.878 Y158.559 E121.45399
G1 X66.346 Y158.339 E121.51526
G1 X65.439 Y157.933 E121.62102
G1 X64.699 Y157.576 E121.70847
G1 X63.896 Y157.144 E121.80552
G1 X63.418 Y156.841 E121.86575
G1 X62.717 Y156.369 E121.9557
G1 X61.938 Y155.814 E122.0575
G1 X61.221 Y155.25 E122.15459
G1 X60.78 Y154.847 E122.21817
G1 X59.916 Y154.005 E122.34658
G1 X59.463 Y153.538 E122.41582
G1 X58.857 Y152.856 E122.51293
G1 X58.51 Y152.404 E122.57358
G1 X57.845 Y151.479 E122.69483
G1 X57.472 Y150.93 E122.76547
G1 X56.993 Y150.154 E122.86253
G1 X56.716 Y149.622 E122.92636
G1 X56.196 Y148.537 E123.05442
G1 X55.933 Y147.948 E123.12308
G1 X55.598 Y147.1 E123.22012
G1 X55.43 Y146.569 E123.27939
G1 X55.165 Y145.638 E123.38242
G1 X54.955 Y144.811 E123.47323
G1 X54.772 Y143.918 E123.57025
G1 X54.697 Y143.351 E123.63112
G1 X54.588 Y142.264 E123.7474
G1 X54.541 Y141.629 E123.81517
G1 X54.514 Y141.02 E123.88005
G1 X54.501 Y140.172 E123.97031
G1 X54.5 Y85.391 E129.80079
G1 X54.51 Y84.584 E129.88668
G1 X54.536 Y83.971 E129.95199
G1 X54.623 Y82.849 E130.07176
G1 X54.69 Y82.206 E130.14057
G1 X54.824 Y81.304 E130.23762
G1 X54.946 Y80.756 E130.29738
G1 X55.228 Y79.651 E130.41875
G1 X55.415 Y78.993 E130.49156
G1 X55.703 Y78.128 E130.58859
G1 X55.917 Y77.609 E130.64834
G1 X56.374 Y76.593 E130.76691
G1 X56.666 Y75.986 E130.83861
G1 X57.097 Y75.182 E130.9357
G1 X57.414 Y74.681 E130.9988
G1 X57.898 Y73.963 E131.09096
G1 X58.473 Y73.158 E131.19625
G1 X59.038 Y72.443 E131.29324
G1 X59.433 Y72.012 E131.35546
G1 X60.134 Y71.291 E131.46249
G1 X60.709 Y70.731 E131.54792
G1 X61.39 Y70.124 E131.64501
G1 F2700 E126.64501
G0 F6000 X68.226 Y78.473
G1 F2700 E131.64501
G1 F1200 X69.4 Y77.65 E131.79761
G1 X70.694 Y77.05 E131.94941
G1 X72.078 Y76.679 E132.10192
G1 X73.437 Y76.558 E132.24713
G1 X161.563 Y76.558 E141.6266
G1 X162.922 Y76.679 E141.77181
G1 X164.306 Y77.05 E141.92431
G1 X165.6 Y77.65 E142.07612
G1 X166.774 Y78.473 E142.22872
G1 X167.786 Y79.485 E142.38104
G1 X168.608 Y80.658 E142.53349
G1 X169.21 Y81.956 E142.68577
G1 X169.579 Y83.333 E142.8375
G1 X169.7 Y84.696 E142.98314
G1 X169.7 Y140.819 E148.95645
G1 X169.579 Y142.184 E149.1023
G1 X169.21 Y143.56 E149.25392
G1 X168.606 Y144.861 E149.40659
G1 X167.788 Y146.03 E149.55844
G1 X166.773 Y147.046 E149.71129
G1 X165.604 Y147.862 E149.86303
G1 X164.298 Y148.469 E150.01631
G1 X162.926 Y148.837 E150.16749
G1 X161.561 Y148.958 E150.31334
